MA3T1/113/aimg/amarillo.svg

<svg clip-rule="evenodd" fill-rule="evenodd" stroke-linejoin="round" stroke-miterlimit="2" viewBox="0 0 118 120" xmlns="http://www.w3.org/2000/svg"><g fill-rule="nonzero"><path d="m0-26.646c2.004 1.615 2.248 1.807 3.135 2.72 4.331 4.46 4.565 12.725-1.034 18.227-5.451 5.355-12.282 5.699-17.096 1.965-1.289-1-3.296-2.876-4.201-5.009z" fill="#fec659" transform="matrix(4.16667 0 0 4.16667 88.85992782 122.13625333)"/><path d="m-9.062-22.722c-6.037-.057-11.332 5.632-11.002 13.371.323 7.532 5.016 12.383 11.002 12.934 5.124.472 11.105-5.27 10.997-12.808-.106-7.54-5.438-13.445-10.997-13.497" fill="#ffec49" transform="matrix(-3.04438160217 -2.84480227584 -2.84480227584 3.04438160217 -1.91931147 55.75286689)"/><path d="m0-21.474c-3.495 0-7.328 1.586-10.199 4.572-2.58 2.684-3.908 6.286-3.647 9.886.192 2.621 1.239 4.852 2.874 6.119 4.74 3.676 11.211 2.914 16.105-1.893 2.679-2.631 4.18-6.074 4.123-9.444-.048-2.77-1.119-5.255-3.017-6.994-1.653-1.517-3.869-2.246-6.239-2.246m-4.29 24.063c-2.617 0-5.175-.844-7.395-2.566-1.895-1.47-3.106-4.005-3.321-6.955-.286-3.927 1.16-7.855 3.968-10.775 5.246-5.458 13.518-6.546 18.063-2.378 2.135 1.957 3.34 4.739 3.394 7.831.063 3.688-1.566 7.44-4.471 10.294-3.061 3.007-6.704 4.549-10.238 4.549" fill="#231f20" transform="matrix(4.16667 0 0 4.16667 62.67657354 94.26123103)"/><path d="m0 16.074c-4.778.202-6.181-3.724-6.302-5.389-.191-2.629.831-5.381 2.735-7.361 2.123-2.208 5.038-3.526 7.796-3.526 1.659 0 3.092.477 4.039 1.344 1.224 1.122 1.916 2.764 1.948 4.621.043 2.471-1.101 5.036-3.137 7.036-2.181 2.142-4.629 3.275-7.079 3.275" fill="#fec659" transform="matrix(4.16667 0 0 4.16667 43.86405849 18.42783703)"/><path d="m0 15.007c-4.461.188-5.77-3.477-5.883-5.031-.179-2.454.776-5.023 2.553-6.872 1.981-2.061 4.703-3.292 7.279-3.292 1.548 0 2.886.446 3.769 1.255 1.143 1.048 1.79 2.581 1.819 4.315.04 2.307-1.027 4.7-2.928 6.567-2.036 2-4.322 3.058-6.609 3.058" fill="#ffec49" transform="matrix(4.16667 0 0 4.16667 46.82656086 24.69867538)"/><g fill="#231f20"><path d="m0-15.119c-2.604 0-5.362 1.251-7.377 3.348-1.792 1.863-2.754 4.449-2.574 6.915.103 1.412 1.311 5.034 5.696 4.85.009-.001.017-.001.026-.001 2.293 0 4.601-1.075 6.671-3.108 1.923-1.889 3.002-4.298 2.962-6.609-.028-1.697-.654-3.19-1.759-4.204-.838-.768-2.132-1.191-3.645-1.191m-4.589 16.283c-4.984 0-6.4-4.253-6.522-5.935-.203-2.79.879-5.709 2.895-7.807 2.231-2.319 5.302-3.705 8.216-3.705 1.804 0 3.378.532 4.431 1.498 1.343 1.231 2.102 3.021 2.136 5.04.046 2.63-1.161 5.349-3.31 7.46-2.288 2.248-4.872 3.438-7.475 3.442-.125.005-.25.007-.371.007" transform="matrix(4.16667 0 0 4.16667 61.48907259 83.00705536)"/><path d="m0 26.416c-2.65 0-5.24-.855-7.489-2.599-.966-.75-3.327-2.76-4.38-5.242-.125-.296.013-.638.308-.763.296-.125.637.013.763.309.972 2.291 3.324 4.235 4.022 4.776 4.806 3.728 11.369 2.956 16.331-1.919 4.43-4.354 5.9-12.387 1.025-17.408-.837-.861-1.073-1.051-2.912-2.535l-.171-.138c-.25-.201-.289-.567-.088-.818.202-.25.569-.288.819-.087l.17.138c1.847 1.489 2.13 1.718 3.017 2.63 2.247 2.315 3.477 5.648 3.37 9.145-.111 3.698-1.68 7.214-4.415 9.903-3.1 3.046-6.79 4.608-10.37 4.608" transform="matrix(4.16667 0 0 4.16667 56.10156828 9.256163026)"/></g></g></svg>

<?xml version="1.0" encoding="UTF-8" standalone="no"?>
<!DOCTYPE svg PUBLIC "-//W3C//DTD SVG 1.1//EN" "http://www.w3.org/Graphics/SVG/1.1/DTD/svg11.dtd">
<svg width="100%" height="100%" viewBox="0 0 118 120" version="1.1" xmlns="http://www.w3.org/2000/svg" xmlns:xlink="http://www.w3.org/1999/xlink" xml:space="preserve" xmlns:serif="http://www.serif.com/" style="fill-rule:evenodd;clip-rule:evenodd;stroke-linejoin:round;stroke-miterlimit:2;">
    <g transform="matrix(1,0,0,1,-1904.25,-7578.05)">
        <g transform="matrix(4.16667,0,0,4.16667,0,7175.19)">
            <g transform="matrix(1,0,0,1,478.346,125.999)">
                <path d="M0,-26.646C2.004,-25.031 2.248,-24.839 3.135,-23.926C7.466,-19.466 7.7,-11.201 2.101,-5.699C-3.35,-0.344 -10.181,0 -14.995,-3.734C-16.284,-4.734 -18.291,-6.61 -19.196,-8.743L0,-26.646Z" style="fill:rgb(254,198,89);fill-rule:nonzero;"/>
            </g>
        </g>
        <g transform="matrix(4.16667,0,0,4.16667,0,7175.19)">
            <g transform="matrix(-0.730651,-0.682752,-0.682752,0.730651,456.559,110.067)">
                <path d="M-9.062,-22.722C-15.099,-22.779 -20.394,-17.09 -20.064,-9.351C-19.741,-1.819 -15.048,3.032 -9.062,3.583C-3.938,4.055 2.043,-1.687 1.935,-9.225C1.829,-16.765 -3.503,-22.67 -9.062,-22.722" style="fill:rgb(255,236,73);fill-rule:nonzero;"/>
            </g>
        </g>
        <g transform="matrix(4.16667,0,0,4.16667,0,7175.19)">
            <g transform="matrix(1,0,0,1,472.062,119.309)">
                <path d="M0,-21.474C-3.495,-21.474 -7.328,-19.888 -10.199,-16.902C-12.779,-14.218 -14.107,-10.616 -13.846,-7.016C-13.654,-4.395 -12.607,-2.164 -10.972,-0.897C-6.232,2.779 0.239,2.017 5.133,-2.79C7.812,-5.421 9.313,-8.864 9.256,-12.234C9.208,-15.004 8.137,-17.489 6.239,-19.228C4.586,-20.745 2.37,-21.474 0,-21.474M-4.29,2.589C-6.907,2.589 -9.465,1.745 -11.685,0.023C-13.58,-1.447 -14.791,-3.982 -15.006,-6.932C-15.292,-10.859 -13.846,-14.787 -11.038,-17.707C-5.792,-23.165 2.48,-24.253 7.025,-20.085C9.16,-18.128 10.365,-15.346 10.419,-12.254C10.482,-8.566 8.853,-4.814 5.948,-1.96C2.887,1.047 -0.756,2.589 -4.29,2.589" style="fill:rgb(35,31,32);fill-rule:nonzero;"/>
            </g>
        </g>
        <g transform="matrix(4.16667,0,0,4.16667,0,7175.19)">
            <g transform="matrix(1,0,0,1,467.547,101.109)">
                <path d="M0,16.074C-4.778,16.276 -6.181,12.35 -6.302,10.685C-6.493,8.056 -5.471,5.304 -3.567,3.324C-1.444,1.116 1.471,-0.202 4.229,-0.202C5.888,-0.202 7.321,0.275 8.268,1.142C9.492,2.264 10.184,3.906 10.216,5.763C10.259,8.234 9.115,10.799 7.079,12.799C4.898,14.941 2.45,16.074 0,16.074" style="fill:rgb(254,198,89);fill-rule:nonzero;"/>
            </g>
        </g>
        <g transform="matrix(4.16667,0,0,4.16667,0,7175.19)">
            <g transform="matrix(1,0,0,1,468.258,102.614)">
                <path d="M0,15.007C-4.461,15.195 -5.77,11.53 -5.883,9.976C-6.062,7.522 -5.107,4.953 -3.33,3.104C-1.349,1.043 1.373,-0.188 3.949,-0.188C5.497,-0.188 6.835,0.258 7.718,1.067C8.861,2.115 9.508,3.648 9.537,5.382C9.577,7.689 8.51,10.082 6.609,11.949C4.573,13.949 2.287,15.007 0,15.007" style="fill:rgb(255,236,73);fill-rule:nonzero;"/>
            </g>
        </g>
        <g transform="matrix(4.16667,0,0,4.16667,0,7175.19)">
            <g transform="matrix(1,0,0,1,471.777,116.608)">
                <path d="M0,-15.119C-2.604,-15.119 -5.362,-13.868 -7.377,-11.771C-9.169,-9.908 -10.131,-7.322 -9.951,-4.856C-9.848,-3.444 -8.64,0.178 -4.255,-0.006C-4.246,-0.007 -4.238,-0.007 -4.229,-0.007C-1.936,-0.007 0.372,-1.082 2.442,-3.115C4.365,-5.004 5.444,-7.413 5.404,-9.724C5.376,-11.421 4.75,-12.914 3.645,-13.928C2.807,-14.696 1.513,-15.119 0,-15.119M-4.589,1.164C-9.573,1.164 -10.989,-3.089 -11.111,-4.771C-11.314,-7.561 -10.232,-10.48 -8.216,-12.578C-5.985,-14.897 -2.914,-16.283 0,-16.283C1.804,-16.283 3.378,-15.751 4.431,-14.785C5.774,-13.554 6.533,-11.764 6.567,-9.745C6.613,-7.115 5.406,-4.396 3.257,-2.285C0.969,-0.037 -1.615,1.153 -4.218,1.157C-4.343,1.162 -4.468,1.164 -4.589,1.164" style="fill:rgb(35,31,32);fill-rule:nonzero;"/>
            </g>
        </g>
        <g transform="matrix(4.16667,0,0,4.16667,0,7175.19)">
            <g transform="matrix(1,0,0,1,470.484,98.9078)">
                <path d="M0,26.416C-2.65,26.416 -5.24,25.561 -7.489,23.817C-8.455,23.067 -10.816,21.057 -11.869,18.575C-11.994,18.279 -11.856,17.937 -11.561,17.812C-11.265,17.687 -10.924,17.825 -10.798,18.121C-9.826,20.412 -7.474,22.356 -6.776,22.897C-1.97,26.625 4.593,25.853 9.555,20.978C13.985,16.624 15.455,8.591 10.58,3.57C9.743,2.709 9.507,2.519 7.668,1.035L7.497,0.897C7.247,0.696 7.208,0.33 7.409,0.079C7.611,-0.171 7.978,-0.209 8.228,-0.008L8.398,0.13C10.245,1.619 10.528,1.848 11.415,2.76C13.662,5.075 14.892,8.408 14.785,11.905C14.674,15.603 13.105,19.119 10.37,21.808C7.27,24.854 3.58,26.416 0,26.416" style="fill:rgb(35,31,32);fill-rule:nonzero;"/>
            </g>
        </g>
    </g>
</svg>
